X:51
T:Et c'est assez pour m'esjouir
C:Jacques Vide
O:XVe
M:3/4
L:1/8
K:F
%%continueall 1
%%staves [1 2]
%%MIDI program 1 72
%%MIDI program 2 43
V:1
G2BBA2 | G2dde2 | fa2g2^f | g4zg | g_b2a2g | a2gfe2 | d4zf | g2f2e2 |
cd2c2B | A4d2 | c2B2A2 | G4zg | g4a2 | _b2ag ^f>e | g2fed2 | G2B2A2 | G4zA |
G2gg^f2 | ga2g2^f | g4zg | a2bba2 | b2a2g2 | f2e2d2 | c2ee2d | c2gga2 | ba2g2^f | Hg6 |]
V:2 octave=-2
g4^f2 | g2f2e2 | d2cBA2 | G2G2G2 | c4B2 | A4c2 | d6 | c6 |
f4g2 | a2agf2 | ea2g2^f | g6 | c6 | G3A3 | G6 | g3^f3 | g2de^f2 |
g2ced2 | c2B2A2 | G6 | d4c2 | B2-B2>c2 | d2gg^f2 | g4z^f | gf2ed2 | B4A2 | HG6 |]




%%header "$P0	 $IR 	$P1"
%%footer $D - Éditions Galouvielle - 2009 - À usage librement privé dans le cadre familial

